X:550
T:Montgomerie's
R:Hornpipe
B:The Athole Colletion
M:C|
L:1/8
K:D
A,2|D2 D2 DEFD|A2 A2 ABcA|d2 df edcB|A^GAB A=GFE|D2D2 DEFD|
A2A2 ABcA|BdcB AGFE|D2 D2 D2:||:de|fdfg fedc|dcde dcBA|Bcdc B2 ef|
gafg e2 de|fdfg fedc|dcde dcBA|Bcde fgef|d2 d2 d2:|

